rospo-icon-theme-classic-common/64x64/apps/gftp.svg

<svg height="64" width="64" xmlns="http://www.w3.org/2000/svg"><rect fill="#84b126" height="56" rx="2.8" transform="matrix(0 -1 -1 0 0 0)" width="56" x="-60" y="-60"/><path d="m12 48h40v6h-40z" opacity=".2"/><path d="m6.8007812 4c-1.5511778 0-2.8007812 1.2495827-2.8007812 2.8002055v.9997945c0-1.5506228 1.2496034-2.8002055 2.8007812-2.8002055h50.3984378c1.549978 0 2.800781 1.2495827 2.800781 2.8002055v-.9997945c0-1.5506227-1.250803-2.8002055-2.800781-2.8002055z" fill="#fff" opacity=".2"/><path d="m4 57.199219v1c0 1.549978 1.2496034 2.800781 2.8007812 2.800781h50.3984378c1.549978 0 2.800781-1.250803 2.800781-2.800781v-1c0 1.549978-1.250803 2.800781-2.800781 2.800781h-50.3984378c-1.5511778 0-2.8007812-1.250803-2.8007812-2.800781z" opacity=".2"/><path d="m29 40h6v8h-6z" fill="#3f3f3f"/><path d="m12 47h40v6h-40z" fill="#3f3f3f"/><circle cx="14" cy="51" opacity=".2" r="6"/><circle cx="14" cy="50" fill="#fff" r="6"/><circle cx="32" cy="51" opacity=".2" r="6"/><circle cx="32" cy="50" fill="#fff" r="6"/><circle cx="49.999" cy="51" opacity=".2" r="6"/><circle cx="49.999" cy="50" fill="#fff" r="6"/><path d="m19.33965 9.000744c-1.849812 0-3.339822 1.489978-3.339822 3.339752v25.319638c0 1.849973 1.49001 3.339952 3.339822 3.339952h25.320156c1.850012 0 3.340022-1.489979 3.340022-3.339952v-25.319638c0-1.849974-1.49001-3.339952-3.340022-3.339952h-25.320156zm4.660228 7.999885h16.0001v15.999771h-16.0001z" opacity=".2"/><path d="m19.33965 8.0007723c-1.849812 0-3.339822 1.4899787-3.339822 3.3397527v25.319637c0 1.849974 1.49001 3.339953 3.339822 3.339953h25.320156c1.850012 0 3.340022-1.489979 3.340022-3.339953v-25.319637c0-1.849974-1.49001-3.3399527-3.340022-3.3399527h-25.320156zm4.660228 7.9998857h16.0001v15.999771h-16.0001z" fill="#5c5c5c"/></svg>

<svg xmlns="http://www.w3.org/2000/svg" width="64" height="64" version="1">
 <rect style="fill:#84b126" width="56" height="56" x="-60" y="-60" rx="2.8" ry="2.8" transform="matrix(0,-1,-1,0,0,0)"/>
 <rect style="opacity:0.2" width="40" height="6" x="12" y="48"/>
 <path style="opacity:0.2;fill:#ffffff" d="M 6.8007812,4 C 5.2496034,4 4,5.2495827 4,6.8002055 L 4,7.8 C 4,6.2493772 5.2496034,4.9997945 6.8007812,4.9997945 l 50.3984378,0 C 58.749197,4.9997945 60,6.2493772 60,7.8 L 60,6.8002055 C 60,5.2495828 58.749197,4 57.199219,4 L 6.8007812,4 Z"/>
 <path style="opacity:0.2" d="m 4,57.199219 0,1 C 4,59.749197 5.2496034,61 6.8007812,61 L 57.199219,61 C 58.749197,61 60,59.749197 60,58.199219 l 0,-1 C 60,58.749197 58.749197,60 57.199219,60 L 6.8007812,60 C 5.2496034,60 4,58.749197 4,57.199219 Z"/>
 <rect style="fill:#3f3f3f" width="6" height="8" x="29" y="40"/>
 <rect style="fill:#3f3f3f" width="40" height="6" x="12" y="47"/>
 <circle style="opacity:0.2" cx="14" cy="51" r="6"/>
 <circle style="fill:#ffffff" cx="14" cy="50" r="6"/>
 <circle style="opacity:0.2" cx="32" cy="51" r="6"/>
 <circle style="fill:#ffffff" cx="32" cy="50" r="6"/>
 <circle style="opacity:0.2" cx="49.999" cy="51" r="6"/>
 <circle style="fill:#ffffff" cx="49.999" cy="50" r="6"/>
 <path style="opacity:0.2" d="m 19.33965,9.000744 c -1.849812,0 -3.339822,1.489978 -3.339822,3.339752 l 0,25.319638 c 0,1.849973 1.49001,3.339952 3.339822,3.339952 l 25.320156,0 c 1.850012,0 3.340022,-1.489979 3.340022,-3.339952 l 0,-25.319638 c 0,-1.849974 -1.49001,-3.339952 -3.340022,-3.339952 l -25.320156,0 z m 4.660228,7.999885 16.0001,0 0,15.999771 -16.0001,0 0,-15.999771 z"/>
 <path style="fill:#5c5c5c" d="m 19.33965,8.0007723 c -1.849812,0 -3.339822,1.4899787 -3.339822,3.3397527 l 0,25.319637 c 0,1.849974 1.49001,3.339953 3.339822,3.339953 l 25.320156,0 c 1.850012,0 3.340022,-1.489979 3.340022,-3.339953 l 0,-25.319637 c 0,-1.849974 -1.49001,-3.3399527 -3.340022,-3.3399527 l -25.320156,0 z m 4.660228,7.9998857 16.0001,0 0,15.999771 -16.0001,0 0,-15.999771 z"/>
</svg>
